X: 42792
T: Whitefriars
R: hornpipe
M: 4/4
K: Gmajor
AB|:cB AG FG AG|F2 D2 FG AB|
A2 AB cB AG|FG AG FG Ac|B2 G2 G2 AB:|
|:cB cd e2 f2|g2 e2 ag fe|de fd ef ge|a2 A2 A2 AB|
cB cd e2 f2|g2 e2 ag fe|d2 A2 AB cd|B2 G2 G2 AB:|

